!!!OTL@@DE: M&auml;nner und Buben
!!!COM: Volksweise des 18. Jahrh.
!!!ODT: <1800
!!!OMD: Marschm&auml;ssig
!!!LYR: K&ouml;rner, Theodor
!!!LDT: 1813
!!!OCL: Erk, Ludwig
!!!GCO: Deutscher Liederschatz, Band 1
**kern	**kern	**kern
*staff3	*staff2	*staff1
*Ipiano	*Ipiano	*Ivox
*clefF4	*clefG2	*clefG2
*k[f#]	*k[f#]	*k[f#]
*G:	*G:	*G:
*met(C)	*met(C)	*met(C)
*M4/4	*M4/4	*M4/4
*MM120	*MM120	*MM120
4D\	4d/	4d/
=1	=1	=1
4GG/ 4G/	4B/ 4g/	4g/
4D\	4d/	4d/
4BB/	4B/	4B/
4D\	4d/	4d/
=2	=2	=2
4GG/ 4G/	4B/ 4d/ 4g/	4g/
4DD/ 4D/	4d/ 4f#/ 4a/	4a/
4GGG/ 4GG/	4d/ 4g/ 4b/	4b\
8r	8r	8r
8GG/	8d/ 8g/ 8b/	8b/
=3	=3	=3
4G\	4d/ 4g/ 4b/	4b\
8.D\L	8.d/ 8.f#/ 8.a/L	8.a\L
16G\Jk	16d/ 16g/ 16b/Jk	16b\Jk
4A\	4d/ 4f#/ 4cc/	4cc\
4G\	4d/ 4g/ 4b/	8.b\
.	.	16b\
=4	=4	=4
*	*^	*
4D\	8g/ (8b/L	4d\	8b/L
.	8f#/ 8a/)	.	8a/J
*	*v	*v	*
4DD/ 4D/	8d/ 8f#/ 8a/	8a/
.	8d/ 8f#/ 8a/J	8a/
4DD/ 4D/	4d/ 4f#/ 4a/	4a/
4r	4r	4r
=5	=5	=5
4AA\ 4A\	4a/	4a/
4AA\ 4A\	8.a/L	12a/
.	.	12a/
.	.	12a/
.	16a/Jk	.
4FF#/ 4F#/	4d/ 4dd/	4dd\
8.AA\ 8.A\L	4a/	4a/
16AA\ 16A\Jk	.	.
=6	=6	=6
4D\ 4d\	4f#/	4f#/
4AA\ 4A\	8.a/L	8.a/
.	16a/Jk	16a/
4FF#/ 4F#/	4f#/	4f#/
4DD/ 4D/	4d/	4d/
=7	=7	=7
4AA\ 4A\	4c#/ 4e/ 4a/	4a/
4GG/ 4G/	8.c#/ 8.e/ 8.a/L	8.a/
.	16c#/ 16e/ 16a/Jk	16a/
4FF#/ 4F#/	4d/ 4a/ 4dd/	4dd\
8.AA\ 8.A\L	4a/	8.a/
16AA\ 16A\Jk	.	16a/
=8	=8	=8
4D\ 4d\	4f#/	4f#/
4A\	8.a/L	8.a/
.	16a/Jk	16a/
8D\ 8d\L	8dd\L	8dd\L
8Cn\ 8cn\	8ccn\	8cc\J
8BB\ 8B\	8b\	8b/L
8AA\ 8A\J	8a\J	8a/J
=9	=9	=9
4GG/ 4G/	4B/ 4d/ 4g/	4g/
8.BB\ 8.G\L	8.d/ 8.g/L	8.g/
16BB\ 16G\Jk	16d/ 16g/Jk	16g/
4D\ 4A\	4d/ 4f#/ 4a/	4a/
8.D\ 8.A\L	8.d/ 8.f#/ 8.a/L	8.a/
16D\ 16A\Jk	16d/ 16f#/ 16a/Jk	16a/
=10	=10	=10
4G\ 4B\	4d/ 4g/ 4b/	4b\
8.B\L	8.d/ 8.g/ 8.dd/L	8.dd\
16G\Jk	16d/ 16g/ 16b/Jk	16b\
4D;\ 4A;\	4d;/ 4f#;/ 4a;/	4a;/
8.BB\ 8.G\L	8.d/ 8.g/L	8.g/
16D\ 16A\Jk	16d/ 16f#/ 16a/Jk	16a/
=11	=11	=11
4G\ 4B\	4d/ 4g/ 4b/	4b\
8BB\ 8B\L	8d/ 8g/ 8dd/L	8dd\
8GG\ 8G\J	8d/ 8g/ 8b/J	8b\
4DD;/ 4D;/	4d;/ 4f#;/ 4a;/	4a;/
4G\	8B/ 8g/L	8g/L
.	8g/ 8b/J	8b/J
=12	=12	=12
8GG/L	4.d/ 4.b/ 4.dd/	4.dd\
8D/	.	.
8E/	.	.
8F#/J	8d/ 8a/ 8cc/	8cc\
4G\	4d/ 4g/ 4b/	4b\
4BB/	4d/ 4g/ 4b/	4b\
=13	=13	=13
4D\	8c/ 8f#/ (8a/L	8a/L
.	8B/ 8g/J)	8g/J
*	*^	*
4DD/ [4D/	(8a/L	4c\ 4f#\	8a/L
.	8b/J)	.	8b/J
*	*v	*v	*
4GG/ 4D/]	4B/ 4g/	4g/
4G\	8B/ 8g/L	8g/L
.	8g/ 8b/J	8b/J
=14	=14	=14
8GG/L	4.d/ 4.b/ 4.dd/	4.dd\
8D/	.	.
8E/	.	.
8F#/J	8d/ 8a/ 8cc/	8cc\
4G\	4d/ 4g/ 4b/	4b\
4BB/	4d/ 4g/ 4b/	4b\
=15	=15	=15
4D\	8c/ 8f#/ (8a/L	8a/L
.	8B/ 8g/J	8g/J
*	*^	*
4DD/ 4D/	8a/L)	4c\ 4f#\	8a/L
.	8b/J	.	8b/J
*	*v	*v	*
4GG/ 4D/	4B/ 4g/	4g/
4FF#/ 4F#/	4a\ 4cc\ 4dd\	4dd\
=16	=16	=16
4GG/ 4G/	4g\ 4b\ 4gg\	4gg\
4D\ 4d\	4dd\	4dd\
4BB\ 4B\	4b\	4b\
4GG/ 4G/	4g/	4g/
=17	=17	=17
2.DD;/ 2.D;/	2.d;/ 2.f#;/ 2.a;/ 2.dd;/	4.dd\
.	.	8dd\
.	.	4dd;\
8.G\L	8.B/ 8.g/ 8.b/L	8.b\
16F#\Jk	16B/ 16g/ 16b/Jk	16b\
=18	=18	=18
4E\	4B/ 4g/ 4b/	4b\
8.D/L	8.B/ 8.g/ 8.b/L	8.b\
16C/Jk	16B/ 16g/ 16b/Jk	16b\
8.BB/L	4B/ 4g/ 4b/	4b\
16AA/Jk	.	.
8.GG/ 8.G/L	8.B/ 8.g/ 8.b/L	8.b\
16FF#/ 16F#/Jk	16B/ 16g/ 16b/Jk	16b\
=19	=19	=19
4EE^/ 4E^/	8.B/ 8.g/ 8.b/L	8.b\
.	16B/ 16g/ 16b/k	16b\
4DD^/ 4D^/	8.d/ 8.f#/ 8.a/ 8.dd/	8.dd\
.	16d/ 16f#/ 16a/ 16dd/Jk	16dd\
4GGG^/ 4GG^/	4d/ 4g/ 4b/ 4dd/	[2dd\
*clefG2	*	*
8.g/ 8.b/L	8.dd\ 8.gg\ 8.bb\L	.
16g/ 16b/Jk	16dd\ 16gg\ 16bb\Jk	.
=20	=20	=20
8.g/ 8.b/L	8.dd\ 8.gg\ 8.bb\L	2dd\]
16g/ 16b/Jk	16dd\ 16gg\ 16bb\Jk	.
8.d/ 8.a/L	8.ff#\ 8.aa\ 8.ddd\L	.
16d/ 16a/Jk	16ff#\ 16aa\ 16ddd\Jk	.
4G;/ 4g;/	4gg;\ 4bb;\ 4ddd;\ 4ggg;\	4r;
==	==	==
*-	*-	*-
!!!ENC: Craig Stuart Sapp
!!!END: 2004/06/01/
!!!EFL: 130/651
